svg/color/fcon.svg

<?xml version="1.0" encoding="UTF-8" ?>
<!DOCTYPE svg PUBLIC "-//W3C//DTD SVG 1.1//EN" "http://www.w3.org/Graphics/SVG/1.1/DTD/svg11.dtd">
<svg width="250pt" height="250pt" viewBox="0 0 250 250" version="1.1" xmlns="http://www.w3.org/2000/svg">
<g id="#feffffff">
<path fill="#feffff" opacity="1.00" d=" M 0.00 0.00 L 250.00 0.00 L 250.00 250.00 L 0.00 250.00 L 0.00 0.00 M 121.01 11.91 C 117.46 12.68 114.79 16.37 113.27 19.35 C 107.53 25.57 100.02 30.42 95.01 37.03 C 94.76 37.27 94.25 37.75 94.00 37.99 L 93.04 38.03 C 93.61 66.71 91.67 97.92 94.02 125.02 L 95.00 124.93 C 98.83 130.21 104.26 134.60 108.98 139.18 C 112.95 136.16 116.12 132.16 119.82 128.82 C 117.38 124.74 112.79 122.01 109.76 118.27 C 110.22 93.45 110.11 68.59 109.77 43.77 C 114.80 39.25 119.00 32.74 124.91 29.98 C 130.24 34.12 135.50 38.80 140.24 43.71 C 139.74 68.86 139.91 94.07 140.24 119.24 C 132.81 126.93 124.95 134.21 117.64 142.01 C 111.44 147.87 105.38 153.92 99.60 160.20 C 95.03 162.91 91.62 167.59 87.67 171.22 C 85.08 149.74 89.21 127.03 85.84 105.97 C 81.11 110.79 74.78 114.90 72.03 121.18 L 71.98 122.05 L 71.03 122.00 C 70.92 147.33 71.06 172.67 70.97 198.00 C 71.21 199.29 70.09 211.09 72.66 207.43 C 82.23 198.76 91.28 189.40 100.08 179.96 C 106.58 174.71 112.23 168.12 118.10 162.09 C 124.68 156.12 131.07 149.67 137.06 143.03 C 142.89 137.32 149.64 131.97 154.91 125.74 C 155.17 125.56 155.69 125.20 155.95 125.02 L 156.95 124.98 C 156.42 96.31 158.29 65.04 156.00 38.01 C 155.75 37.76 155.25 37.26 154.99 37.01 C 151.50 32.98 146.44 29.57 142.72 25.37 C 142.14 22.76 139.60 20.65 137.06 19.92 C 133.19 16.20 125.59 4.02 121.01 11.91 M 163.11 107.09 C 162.21 128.50 164.33 150.09 162.04 171.40 C 155.45 164.82 148.39 158.53 142.71 151.15 C 137.42 150.97 134.63 158.00 130.82 160.98 C 135.74 166.57 141.24 172.14 146.82 176.83 C 156.07 187.51 166.97 196.73 176.44 207.25 C 175.40 208.48 178.04 209.10 178.94 209.06 C 179.07 180.03 179.02 151.00 178.96 121.97 L 177.99 122.07 C 175.38 115.98 169.20 112.28 164.75 107.61 C 164.34 107.48 163.52 107.22 163.11 107.09 M 118.01 174.03 L 117.04 174.01 C 117.03 194.37 116.81 214.74 117.18 235.11 L 118.08 234.69 C 120.72 236.35 123.63 243.30 126.75 239.83 C 130.76 238.17 134.64 233.77 133.03 229.03 C 132.30 211.07 134.36 190.25 132.01 174.07 C 130.49 171.13 127.54 168.97 124.98 166.94 C 122.29 168.78 119.56 171.25 118.01 174.03 M 105.35 185.58 C 100.44 190.45 91.95 194.80 93.92 202.99 C 90.60 213.41 99.76 218.90 105.54 225.39 C 103.49 226.30 109.17 226.68 108.00 224.98 C 107.34 212.07 109.39 196.16 106.97 185.09 C 106.56 185.21 105.75 185.46 105.35 185.58 M 141.98 218.00 C 142.18 219.28 141.13 231.13 143.65 227.40 C 143.84 227.11 144.24 226.51 144.44 226.22 C 147.75 222.32 152.24 219.14 154.98 214.96 C 157.74 211.80 156.08 200.18 155.00 197.03 C 152.42 193.03 148.26 189.91 144.73 186.65 C 144.61 185.81 144.04 185.20 143.04 184.83 C 139.76 193.86 143.30 207.59 141.98 218.00 Z" />
</g>
<g id="#587bf9ff">
<path fill="#587bf9" opacity="1.00" d=" M 121.01 11.91 C 125.59 4.02 133.19 16.20 137.06 19.92 C 138.73 21.95 140.59 23.82 142.72 25.37 C 146.44 29.57 151.50 32.98 154.99 37.01 C 155.01 41.66 155.03 46.33 154.97 50.99 C 150.36 50.42 145.66 50.25 141.04 50.82 C 141.43 48.30 141.16 45.93 140.24 43.71 C 135.50 38.80 130.24 34.12 124.91 29.98 C 119.00 32.74 114.80 39.25 109.77 43.77 C 108.64 47.67 109.19 51.91 108.94 55.95 C 104.34 55.08 99.63 55.31 94.98 55.18 C 94.96 49.13 94.95 43.08 95.01 37.03 C 100.02 30.42 107.53 25.57 113.27 19.35 C 116.10 17.16 119.09 14.99 121.01 11.91 Z" />
</g>
<g id="#afb7fcff">
<path fill="#afb7fc" opacity="1.00" d=" M 113.27 19.35 C 114.79 16.37 117.46 12.68 121.01 11.91 C 119.09 14.99 116.10 17.16 113.27 19.35 Z" />
</g>
<g id="#adb8fcff">
<path fill="#adb8fc" opacity="1.00" d=" M 137.06 19.92 C 139.60 20.65 142.14 22.76 142.72 25.37 C 140.59 23.82 138.73 21.95 137.06 19.92 Z" />
</g>
<g id="#72b3f9ff">
<path fill="#72b3f9" opacity="1.00" d=" M 94.00 37.99 C 94.25 37.75 94.76 37.27 95.01 37.03 C 94.95 43.08 94.96 49.13 94.98 55.18 C 95.02 68.80 94.95 82.42 95.02 96.03 C 94.99 105.66 94.97 115.29 95.00 124.93 L 94.02 125.02 C 93.98 96.01 94.01 67.00 94.00 37.99 Z" />
</g>
<g id="#87befbff">
<path fill="#87befb" opacity="1.00" d=" M 154.99 37.01 C 155.25 37.26 155.75 37.76 156.00 38.01 C 155.96 67.01 156.06 96.02 155.95 125.02 C 155.69 125.20 155.17 125.56 154.91 125.74 C 154.96 121.53 155.05 117.34 155.04 113.14 C 155.00 103.08 155.05 93.03 155.00 82.97 C 155.01 72.31 155.02 61.65 154.97 50.99 C 155.03 46.33 155.01 41.66 154.99 37.01 Z" />
</g>
<g id="#d9eafdff">
<path fill="#d9eafd" opacity="1.00" d=" M 93.04 38.03 L 94.00 37.99 C 94.01 67.00 93.98 96.01 94.02 125.02 C 91.67 97.92 93.61 66.71 93.04 38.03 Z" />
</g>
<g id="#e0eefdff">
<path fill="#e0eefd" opacity="1.00" d=" M 156.00 38.01 C 158.29 65.04 156.42 96.31 156.95 124.98 L 155.95 125.02 C 156.06 96.02 155.96 67.01 156.00 38.01 Z" />
</g>
<g id="#a6cffbff">
<path fill="#a6cffb" opacity="1.00" d=" M 108.94 55.95 C 109.19 51.91 108.64 47.67 109.77 43.77 C 110.11 68.59 110.22 93.45 109.76 118.27 C 108.34 111.69 109.19 104.79 108.99 98.05 C 108.99 84.02 109.07 69.98 108.94 55.95 Z" />
</g>
<g id="#8ec2faff">
<path fill="#8ec2fa" opacity="1.00" d=" M 140.24 43.71 C 141.16 45.93 141.43 48.30 141.04 50.82 C 140.96 61.55 140.98 72.28 141.01 83.02 C 140.95 93.70 140.94 104.39 141.17 115.08 C 140.95 116.48 140.79 117.91 140.24 119.24 C 139.91 94.07 139.74 68.86 140.24 43.71 Z" />
</g>
<g id="#478ef8ff">
<path fill="#478ef8" opacity="1.00" d=" M 141.04 50.82 C 145.66 50.25 150.36 50.42 154.97 50.99 C 155.02 61.65 155.01 72.31 155.00 82.97 C 150.40 81.36 145.64 81.23 141.01 83.02 C 140.98 72.28 140.96 61.55 141.04 50.82 Z" />
</g>
<g id="#4394f8ff">
<path fill="#4394f8" opacity="1.00" d=" M 94.98 55.18 C 99.63 55.31 104.34 55.08 108.94 55.95 C 109.07 69.98 108.99 84.02 108.99 98.05 C 104.94 94.78 99.85 95.39 95.02 96.03 C 94.95 82.42 95.02 68.80 94.98 55.18 Z" />
</g>
<g id="#38a2f7ff">
<path fill="#38a2f7" opacity="1.00" d=" M 141.01 83.02 C 145.64 81.23 150.40 81.36 155.00 82.97 C 155.05 93.03 155.00 103.08 155.04 113.14 C 150.35 113.14 145.60 113.40 141.17 115.08 C 140.94 104.39 140.95 93.70 141.01 83.02 Z" />
</g>
<g id="#31b0f7ff">
<path fill="#31b0f7" opacity="1.00" d=" M 95.02 96.03 C 99.85 95.39 104.94 94.78 108.99 98.05 C 109.19 104.79 108.34 111.69 109.76 118.27 C 112.79 122.01 117.38 124.74 119.82 128.82 C 116.12 132.16 112.95 136.16 108.98 139.18 C 104.26 134.60 98.83 130.21 95.00 124.93 C 94.97 115.29 94.99 105.66 95.02 96.03 Z" />
</g>
<g id="#a3e1f6ff">
<path fill="#a3e1f6" opacity="1.00" d=" M 72.03 121.18 C 74.78 114.90 81.11 110.79 85.84 105.97 C 89.21 127.03 85.08 149.74 87.67 171.22 C 83.57 175.16 87.41 162.23 86.03 161.15 C 86.05 155.12 86.04 149.09 86.00 143.06 C 85.89 131.33 86.26 119.60 85.89 107.88 C 81.09 112.12 76.84 116.95 72.03 121.18 Z" />
</g>
<g id="#8dddf2ff">
<path fill="#8dddf2" opacity="1.00" d=" M 163.11 107.09 C 163.52 107.22 164.34 107.48 164.75 107.61 C 163.38 119.04 164.12 130.58 164.02 142.06 C 163.99 147.35 163.93 152.64 164.05 157.93 C 162.50 160.83 166.86 173.00 162.04 171.40 C 164.33 150.09 162.21 128.50 163.11 107.09 Z" />
</g>
<g id="#2bb7f4ff">
<path fill="#2bb7f4" opacity="1.00" d=" M 72.03 121.18 C 76.84 116.95 81.09 112.12 85.89 107.88 C 86.26 119.60 85.89 131.33 86.00 143.06 C 81.37 143.78 76.69 143.96 72.02 144.06 C 71.98 136.72 71.98 129.38 71.98 122.05 L 72.03 121.18 Z" />
</g>
<g id="#2eb7f5ff">
<path fill="#2eb7f5" opacity="1.00" d=" M 164.02 142.06 C 164.12 130.58 163.38 119.04 164.75 107.61 C 169.20 112.28 175.38 115.98 177.99 122.07 C 178.01 128.40 178.05 134.73 177.99 141.06 C 173.37 141.78 168.68 141.96 164.02 142.06 Z" />
</g>
<g id="#2cb8f4ff">
<path fill="#2cb8f4" opacity="1.00" d=" M 141.17 115.08 C 145.60 113.40 150.35 113.14 155.04 113.14 C 155.05 117.34 154.96 121.53 154.91 125.74 C 149.64 131.97 142.89 137.32 137.06 143.03 C 131.07 142.90 121.15 147.19 117.64 142.01 C 124.95 134.21 132.81 126.93 140.24 119.24 C 140.79 117.91 140.95 116.48 141.17 115.08 Z" />
</g>
<g id="#74e4deff">
<path fill="#74e4de" opacity="1.00" d=" M 71.03 122.00 L 71.98 122.05 C 71.98 129.38 71.98 136.72 72.02 144.06 C 71.98 150.05 71.96 156.05 72.01 162.05 C 71.98 168.04 71.97 174.05 72.02 180.05 C 72.15 189.16 71.36 198.37 72.66 207.43 C 70.09 211.09 71.21 199.29 70.97 198.00 C 71.06 172.67 70.92 147.33 71.03 122.00 Z" />
</g>
<g id="#91eae4ff">
<path fill="#91eae4" opacity="1.00" d=" M 177.99 122.07 L 178.96 121.97 C 179.02 151.00 179.07 180.03 178.94 209.06 C 178.04 209.10 175.40 208.48 176.44 207.25 C 180.22 198.05 176.94 185.46 177.99 175.06 C 178.02 169.04 178.03 163.02 178.02 157.01 C 178.04 151.69 178.03 146.38 177.99 141.06 C 178.05 134.73 178.01 128.40 177.99 122.07 Z" />
</g>
<g id="#30cbe1ff">
<path fill="#30cbe1" opacity="1.00" d=" M 164.02 142.06 C 168.68 141.96 173.37 141.78 177.99 141.06 C 178.03 146.38 178.04 151.69 178.02 157.01 C 173.87 159.75 168.62 159.16 164.05 157.93 C 163.93 152.64 163.99 147.35 164.02 142.06 Z" />
</g>
<g id="#33cedfff">
<path fill="#33cedf" opacity="1.00" d=" M 99.60 160.20 C 105.38 153.92 111.44 147.87 117.64 142.01 C 121.15 147.19 131.07 142.90 137.06 143.03 C 131.07 149.67 124.68 156.12 118.10 162.09 C 112.22 160.82 104.53 164.55 99.60 160.20 Z" />
</g>
<g id="#31cddeff">
<path fill="#31cdde" opacity="1.00" d=" M 72.02 144.06 C 76.69 143.96 81.37 143.78 86.00 143.06 C 86.04 149.09 86.05 155.12 86.03 161.15 C 81.39 161.91 76.70 162.02 72.01 162.05 C 71.96 156.05 71.98 150.05 72.02 144.06 Z" />
</g>
<g id="#3bdccfff">
<path fill="#3bdccf" opacity="1.00" d=" M 130.82 160.98 C 134.63 158.00 137.42 150.97 142.71 151.15 C 148.39 158.53 155.45 164.82 162.04 171.40 C 166.86 173.00 162.50 160.83 164.05 157.93 C 168.62 159.16 173.87 159.75 178.02 157.01 C 178.03 163.02 178.02 169.04 177.99 175.06 C 167.73 177.30 157.01 174.50 146.82 176.83 C 141.24 172.14 135.74 166.57 130.82 160.98 Z" />
</g>
<g id="#3de0caff">
<path fill="#3de0ca" opacity="1.00" d=" M 87.67 171.22 C 91.62 167.59 95.03 162.91 99.60 160.20 C 104.53 164.55 112.22 160.82 118.10 162.09 C 112.23 168.12 106.58 174.71 100.08 179.96 C 90.77 178.76 81.36 179.61 72.02 180.05 C 71.97 174.05 71.98 168.04 72.01 162.05 C 76.70 162.02 81.39 161.91 86.03 161.15 C 87.41 162.23 83.57 175.16 87.67 171.22 Z" />
</g>
<g id="#42e7c2ff">
<path fill="#42e7c2" opacity="1.00" d=" M 118.01 174.03 C 119.56 171.25 122.29 168.78 124.98 166.94 C 127.54 168.97 130.49 171.13 132.01 174.07 C 132.01 177.37 132.03 180.69 131.98 184.00 C 127.32 183.99 122.67 184.00 118.01 184.00 C 117.98 180.66 117.97 177.36 118.01 174.03 Z" />
</g>
<g id="#8bf7cfff">
<path fill="#8bf7cf" opacity="1.00" d=" M 117.04 174.01 L 118.01 174.03 C 117.97 177.36 117.98 180.66 118.01 184.00 C 118.05 200.89 117.87 217.79 118.08 234.69 L 117.18 235.11 C 116.81 214.74 117.03 194.37 117.04 174.01 Z" />
</g>
<g id="#9bf9d6ff">
<path fill="#9bf9d6" opacity="1.00" d=" M 132.01 174.07 C 134.36 190.25 132.30 211.07 133.03 229.03 C 134.64 233.77 130.76 238.17 126.75 239.83 C 128.84 236.37 133.43 233.84 131.93 228.99 C 132.14 214.00 131.97 199.00 131.98 184.00 C 132.03 180.69 132.01 177.37 132.01 174.07 Z" />
</g>
<g id="#45efb8ff">
<path fill="#45efb8" opacity="1.00" d=" M 146.82 176.83 C 157.01 174.50 167.73 177.30 177.99 175.06 C 176.94 185.46 180.22 198.05 176.44 207.25 C 166.97 196.73 156.07 187.51 146.82 176.83 Z" />
</g>
<g id="#47f1b6ff">
<path fill="#47f1b6" opacity="1.00" d=" M 72.02 180.05 C 81.36 179.61 90.77 178.76 100.08 179.96 C 91.28 189.40 82.23 198.76 72.66 207.43 C 71.36 198.37 72.15 189.16 72.02 180.05 Z" />
</g>
<g id="#46f5b0ff">
<path fill="#46f5b0" opacity="1.00" d=" M 118.01 184.00 C 122.67 184.00 127.32 183.99 131.98 184.00 C 131.97 199.00 132.14 214.00 131.93 228.99 C 133.43 233.84 128.84 236.37 126.75 239.83 C 123.63 243.30 120.72 236.35 118.08 234.69 C 117.87 217.79 118.05 200.89 118.01 184.00 Z" />
</g>
<g id="#85f8cbff">
<path fill="#85f8cb" opacity="1.00" d=" M 105.35 185.58 C 105.75 185.46 106.56 185.21 106.97 185.09 C 105.86 198.10 109.02 212.36 106.08 224.86 C 105.35 211.81 107.17 198.52 105.35 185.58 Z" />
</g>
<g id="#d3fcecff">
<path fill="#d3fcec" opacity="1.00" d=" M 106.97 185.09 C 109.39 196.16 107.34 212.07 108.00 224.98 C 109.17 226.68 103.49 226.30 105.54 225.39 L 106.08 224.86 C 109.02 212.36 105.86 198.10 106.97 185.09 Z" />
</g>
<g id="#c6fce6ff">
<path fill="#c6fce6" opacity="1.00" d=" M 141.98 218.00 C 143.30 207.59 139.76 193.86 143.04 184.83 C 143.37 199.00 142.14 213.28 143.65 227.40 C 141.13 231.13 142.18 219.28 141.98 218.00 Z" />
</g>
<g id="#72f7c3ff">
<path fill="#72f7c3" opacity="1.00" d=" M 143.04 184.83 C 144.04 185.20 144.61 185.81 144.73 186.65 C 143.75 199.77 143.39 213.09 144.44 226.22 C 144.24 226.51 143.84 227.11 143.65 227.40 C 142.14 213.28 143.37 199.00 143.04 184.83 Z" />
</g>
<g id="#4df6b2ff">
<path fill="#4df6b2" opacity="1.00" d=" M 93.92 202.99 C 91.95 194.80 100.44 190.45 105.35 185.58 C 107.17 198.52 105.35 211.81 106.08 224.86 L 105.54 225.39 C 99.76 218.90 90.60 213.41 93.92 202.99 Z" />
</g>
<g id="#48f6b0ff">
<path fill="#48f6b0" opacity="1.00" d=" M 144.44 226.22 C 143.39 213.09 143.75 199.77 144.73 186.65 C 148.26 189.91 152.42 193.03 155.00 197.03 C 155.02 203.00 155.04 208.98 154.98 214.96 C 152.24 219.14 147.75 222.32 144.44 226.22 Z" />
</g>
<g id="#87f9ccff">
<path fill="#87f9cc" opacity="1.00" d=" M 155.00 197.03 C 156.08 200.18 157.74 211.80 154.98 214.96 C 155.04 208.98 155.02 203.00 155.00 197.03 Z" />
</g>
</svg>

<?xml version="1.0" encoding="utf-8"?>
<!-- Generator: Adobe Illustrator 26.0.3, SVG Export Plug-In . SVG Version: 6.00 Build 0)  -->
<svg version="1.1" id="Layer_1" xmlns="http://www.w3.org/2000/svg" xmlns:xlink="http://www.w3.org/1999/xlink" x="0px" y="0px"
	 viewBox="0 0 250 250" style="enable-background:new 0 0 250 250;" xml:space="preserve">
<style type="text/css">
	.st0{fill:#587BF9;}
	.st1{fill:#AFB7FC;}
	.st2{fill:#ADB8FC;}
	.st3{fill:#72B3F9;}
	.st4{fill:#87BEFB;}
	.st5{fill:#D9EAFD;}
	.st6{fill:#E0EEFD;}
	.st7{fill:#A6CFFB;}
	.st8{fill:#8EC2FA;}
	.st9{fill:#478EF8;}
	.st10{fill:#4394F8;}
	.st11{fill:#38A2F7;}
	.st12{fill:#31B0F7;}
	.st13{fill:#A3E1F6;}
	.st14{fill:#8DDDF2;}
	.st15{fill:#2BB7F4;}
	.st16{fill:#2EB7F5;}
	.st17{fill:#2CB8F4;}
	.st18{fill:#74E4DE;}
	.st19{fill:#91EAE4;}
	.st20{fill:#30CBE1;}
	.st21{fill:#33CEDF;}
	.st22{fill:#31CDDE;}
	.st23{fill:#3BDCCF;}
	.st24{fill:#3DE0CA;}
	.st25{fill:#42E7C2;}
	.st26{fill:#8BF7CF;}
	.st27{fill:#9BF9D6;}
	.st28{fill:#45EFB8;}
	.st29{fill:#47F1B6;}
	.st30{fill:#46F5B0;}
	.st31{fill:#85F8CB;}
	.st32{fill:#D3FCEC;}
	.st33{fill:#C6FCE6;}
	.st34{fill:#72F7C3;}
	.st35{fill:#4DF6B2;}
	.st36{fill:#48F6B0;}
	.st37{fill:#87F9CC;}
</style>
<g id="_x23_587bf9ff">
	<path class="st0" d="M121,11.9c4.6-7.9,12.2,4.3,16,8c1.7,2,3.5,3.9,5.7,5.5c3.7,4.2,8.8,7.6,12.3,11.6c0,4.7,0,9.3,0,14
		c-4.6-0.6-9.3-0.7-13.9-0.2c0.4-2.5,0.1-4.9-0.8-7.1c-4.7-4.9-10-9.6-15.3-13.7c-5.9,2.8-10.1,9.3-15.1,13.8
		c-1.1,3.9-0.6,8.1-0.8,12.2c-4.6-0.9-9.3-0.6-14-0.8c0-6,0-12.1,0-18.2c5-6.6,12.5-11.5,18.3-17.7C116.1,17.2,119.1,15,121,11.9z"
		/>
</g>
<g id="_x23_afb7fcff">
	<path class="st1" d="M113.3,19.4c1.5-3,4.2-6.7,7.7-7.4C119.1,15,116.1,17.2,113.3,19.4z"/>
</g>
<g id="_x23_adb8fcff">
	<path class="st2" d="M137.1,19.9c2.5,0.7,5.1,2.8,5.7,5.5C140.6,23.8,138.7,22,137.1,19.9z"/>
</g>
<g id="_x23_72b3f9ff">
	<path class="st3" d="M94,38c0.2-0.2,0.8-0.7,1-1c-0.1,6.1-0.1,12.1,0,18.2c0,13.6,0,27.2,0,40.8c0,9.6,0,19.3,0,28.9l-1,0.1
		C94,96,94,67,94,38z"/>
</g>
<g id="_x23_87befbff">
	<path class="st4" d="M155,37c0.3,0.2,0.8,0.8,1,1c0,29,0.1,58-0.1,87c-0.3,0.2-0.8,0.5-1,0.7c0.1-4.2,0.1-8.4,0.1-12.6
		c0-10.1,0-20.1,0-30.2c0-10.7,0-21.3,0-32C155,46.3,155,41.7,155,37z"/>
</g>
<g id="_x23_d9eafdff">
	<path class="st5" d="M93,38l1,0c0,29,0,58,0,87C91.7,97.9,93.6,66.7,93,38z"/>
</g>
<g id="_x23_e0eefdff">
	<path class="st6" d="M156,38c2.3,27,0.4,58.3,0.9,87l-1,0C156.1,96,156,67,156,38z"/>
</g>
<g id="_x23_a6cffbff">
	<path class="st7" d="M108.9,56c0.2-4-0.3-8.3,0.8-12.2c0.3,24.8,0.5,49.7,0,74.5c-1.4-6.6-0.6-13.5-0.8-20.2
		C109,84,109.1,70,108.9,56z"/>
</g>
<g id="_x23_8ec2faff">
	<path class="st8" d="M140.2,43.7c0.9,2.2,1.2,4.6,0.8,7.1C141,61.5,141,72.3,141,83c-0.1,10.7-0.1,21.4,0.2,32.1
		c-0.2,1.4-0.4,2.8-0.9,4.2C139.9,94.1,139.7,68.9,140.2,43.7z"/>
</g>
<g id="_x23_478ef8ff">
	<path class="st9" d="M141,50.8c4.6-0.6,9.3-0.4,13.9,0.2c0.1,10.7,0,21.3,0,32c-4.6-1.6-9.4-1.7-14,0C141,72.3,141,61.5,141,50.8z"
		/>
</g>
<g id="_x23_4394f8ff">
	<path class="st10" d="M95,55.2c4.6,0.1,9.4-0.1,14,0.8c0.1,14,0,28.1,0,42.1c-4-3.3-9.1-2.7-14-2C94.9,82.4,95,68.8,95,55.2z"/>
</g>
<g id="_x23_38a2f7ff">
	<path class="st11" d="M141,83c4.6-1.8,9.4-1.7,14,0c0.1,10.1,0,20.1,0,30.2c-4.7,0-9.4,0.3-13.9,1.9C140.9,104.4,140.9,93.7,141,83
		z"/>
</g>
<g id="_x23_31b0f7ff">
	<path class="st12" d="M95,96c4.8-0.6,9.9-1.2,14,2c0.2,6.7-0.7,13.6,0.8,20.2c3,3.7,7.6,6.5,10.1,10.6c-3.7,3.3-6.9,7.3-10.8,10.4
		c-4.7-4.6-10.2-9-14-14.2C95,115.3,95,105.7,95,96z"/>
</g>
<g id="_x23_a3e1f6ff">
	<path class="st13" d="M72,121.2c2.8-6.3,9.1-10.4,13.8-15.2c3.4,21.1-0.8,43.8,1.8,65.2c-4.1,3.9-0.3-9-1.6-10.1c0-6,0-12.1,0-18.1
		c-0.1-11.7,0.3-23.5-0.1-35.2C81.1,112.1,76.8,116.9,72,121.2z"/>
</g>
<g id="_x23_8dddf2ff">
	<path class="st14" d="M163.1,107.1c0.4,0.1,1.2,0.4,1.6,0.5c-1.4,11.4-0.6,23-0.7,34.4c0,5.3-0.1,10.6,0,15.9
		c-1.6,2.9,2.8,15.1-2,13.5C164.3,150.1,162.2,128.5,163.1,107.1z"/>
</g>
<g id="_x23_2bb7f4ff">
	<path class="st15" d="M72,121.2c4.8-4.2,9.1-9.1,13.9-13.3c0.4,11.7,0,23.5,0.1,35.2c-4.6,0.7-9.3,0.9-14,1c0-7.3,0-14.7,0-22
		L72,121.2z"/>
</g>
<g id="_x23_2eb7f5ff">
	<path class="st16" d="M164,142.1c0.1-11.5-0.6-23,0.7-34.4c4.4,4.7,10.6,8.4,13.2,14.5c0,6.3,0.1,12.7,0,19
		C173.4,141.8,168.7,142,164,142.1z"/>
</g>
<g id="_x23_2cb8f4ff">
	<path class="st17" d="M141.2,115.1c4.4-1.7,9.2-1.9,13.9-1.9c0,4.2-0.1,8.4-0.1,12.6c-5.3,6.2-12,11.6-17.9,17.3
		c-6-0.1-15.9,4.2-19.4-1c7.3-7.8,15.2-15.1,22.6-22.8C140.8,117.9,140.9,116.5,141.2,115.1z"/>
</g>
<g id="_x23_74e4deff">
	<path class="st18" d="M71,122l1,0.1c0,7.3,0,14.7,0,22c0,6-0.1,12,0,18c0,6,0,12,0,18c0.1,9.1-0.7,18.3,0.6,27.4
		c-2.6,3.7-1.5-8.1-1.7-9.4C71.1,172.7,70.9,147.3,71,122z"/>
</g>
<g id="_x23_91eae4ff">
	<path class="st19" d="M178,122.1l1-0.1c0.1,29,0.1,58.1,0,87.1c-0.9,0-3.5-0.6-2.5-1.8c3.8-9.2,0.5-21.8,1.6-32.2c0-6,0-12,0-18.1
		c0-5.3,0-10.6,0-15.9C178.1,134.7,178,128.4,178,122.1z"/>
</g>
<g id="_x23_30cbe1ff">
	<path class="st20" d="M164,142.1c4.7-0.1,9.3-0.3,14-1c0,5.3,0,10.6,0,15.9c-4.2,2.7-9.4,2.2-14,0.9
		C163.9,152.6,164,147.4,164,142.1z"/>
</g>
<g id="_x23_33cedfff">
	<path class="st21" d="M99.6,160.2c5.8-6.3,11.8-12.3,18-18.2c3.5,5.2,13.4,0.9,19.4,1c-6,6.6-12.4,13.1-19,19.1
		C112.2,160.8,104.5,164.6,99.6,160.2z"/>
</g>
<g id="_x23_31cddeff">
	<path class="st22" d="M72,144.1c4.7-0.1,9.4-0.3,14-1c0,6,0.1,12.1,0,18.1c-4.6,0.8-9.3,0.9-14,0.9C72,156.1,72,150.1,72,144.1z"/>
</g>
<g id="_x23_3bdccfff">
	<path class="st23" d="M130.8,161c3.8-3,6.6-10,11.9-9.8c5.7,7.4,12.7,13.7,19.3,20.2c4.8,1.6,0.5-10.6,2-13.5
		c4.6,1.2,9.8,1.8,14-0.9c0,6,0,12,0,18.1c-10.3,2.2-21-0.6-31.2,1.8C141.2,172.1,135.7,166.6,130.8,161z"/>
</g>
<g id="_x23_3de0caff">
	<path class="st24" d="M87.7,171.2c4-3.6,7.4-8.3,11.9-11c4.9,4.4,12.6,0.6,18.5,1.9c-5.9,6-11.5,12.6-18,17.9
		c-9.3-1.2-18.7-0.4-28.1,0.1c0-6,0-12,0-18c4.7,0,9.4-0.1,14-0.9C87.4,162.2,83.6,175.2,87.7,171.2z"/>
</g>
<g id="_x23_42e7c2ff">
	<path class="st25" d="M118,174c1.5-2.8,4.3-5.2,7-7.1c2.6,2,5.5,4.2,7,7.1c0,3.3,0,6.6,0,9.9c-4.7,0-9.3,0-14,0
		C118,180.7,118,177.4,118,174z"/>
</g>
<g id="_x23_8bf7cfff">
	<path class="st26" d="M117,174l1,0c0,3.3,0,6.6,0,10c0,16.9-0.1,33.8,0.1,50.7l-0.9,0.4C116.8,214.7,117,194.4,117,174z"/>
</g>
<g id="_x23_9bf9d6ff">
	<path class="st27" d="M132,174.1c2.4,16.2,0.3,37,1,55c1.6,4.7-2.3,9.1-6.3,10.8c2.1-3.5,6.7-6,5.2-10.8c0.2-15,0-30,0.1-45
		C132,180.7,132,177.4,132,174.1z"/>
</g>
<g id="_x23_45efb8ff">
	<path class="st28" d="M146.8,176.8c10.2-2.3,20.9,0.5,31.2-1.8c-1.1,10.4,2.2,23-1.6,32.2C167,196.7,156.1,187.5,146.8,176.8z"/>
</g>
<g id="_x23_47f1b6ff">
	<path class="st29" d="M72,180.1c9.3-0.4,18.8-1.3,28.1-0.1c-8.8,9.4-17.8,18.8-27.4,27.5C71.4,198.4,72.2,189.2,72,180.1z"/>
</g>
<g id="_x23_46f5b0ff">
	<path class="st30" d="M118,184c4.7,0,9.3,0,14,0c0,15,0.2,30-0.1,45c1.5,4.8-3.1,7.4-5.2,10.8c-3.1,3.5-6-3.5-8.7-5.1
		C117.9,217.8,118.1,200.9,118,184z"/>
</g>
<g id="_x23_85f8cbff">
	<path class="st31" d="M105.3,185.6c0.4-0.1,1.2-0.4,1.6-0.5c-1.1,13,2,27.3-0.9,39.8C105.3,211.8,107.2,198.5,105.3,185.6z"/>
</g>
<g id="_x23_d3fcecff">
	<path class="st32" d="M107,185.1c2.4,11.1,0.4,27,1,39.9c1.2,1.7-4.5,1.3-2.5,0.4l0.5-0.5C109,212.4,105.9,198.1,107,185.1z"/>
</g>
<g id="_x23_c6fce6ff">
	<path class="st33" d="M142,218c1.3-10.4-2.2-24.1,1.1-33.2c0.3,14.2-0.9,28.4,0.6,42.6C141.1,231.1,142.2,219.3,142,218z"/>
</g>
<g id="_x23_72f7c3ff">
	<path class="st34" d="M143,184.8c1,0.4,1.6,1,1.7,1.8c-1,13.1-1.3,26.4-0.3,39.6c-0.2,0.3-0.6,0.9-0.8,1.2
		C142.1,213.3,143.4,199,143,184.8z"/>
</g>
<g id="_x23_4df6b2ff">
	<path class="st35" d="M93.9,203c-2-8.2,6.5-12.5,11.4-17.4c1.8,12.9,0,26.2,0.7,39.3l-0.5,0.5C99.8,218.9,90.6,213.4,93.9,203z"/>
</g>
<g id="_x23_48f6b0ff">
	<path class="st36" d="M144.4,226.2c-1.1-13.1-0.7-26.4,0.3-39.6c3.5,3.3,7.7,6.4,10.3,10.4c0,6,0,11.9,0,17.9
		C152.2,219.1,147.8,222.3,144.4,226.2z"/>
</g>
<g id="_x23_87f9ccff">
	<path class="st37" d="M155,197c1.1,3.1,2.7,14.8,0,17.9C155,209,155,203,155,197z"/>
</g>
</svg>
